X:1
T:Si ie trespasse
T:Simon Leurart
T:Source : La fleur des chansons à 3---Louvain---P.Phalèse---1574. Editor : André Vierendeels (10/08/18) Notes : Original clefs  G2, G2, C2 Original note values have been halved Editorial accidentals above the staff m 12+13 in S2 : slighly adapted by the editor Editorial proposition : music for male voices (text!)
T:Si ie trespasse
T:©
T:©
C:Simon Leurart
Z:©
%%score [ 1 2 3 ]
L:1/8
Q:1/4=100
M:2/2
K:F
V:1 treble nm="Soprano 1" snm="S 1"
V:2 treble nm="Soprano 2" snm="S 2"
V:3 treble nm="Alto" snm="A"
V:1
 g4 d2 d2 | B4 B2 z F | BdcB f4- | f4 d4 | z2 d2 d4 | _e4 d2 z d | f4 g4 | f2 z d fffe | %8
w: Si ie tres-|pas- se en-|tre tes bras ma- da-|* me,|il me|suf- fit, il|me suf-|fit, car ie ne veux a-|
 f2 c2 cc d2- | d B2 A B2 f2 | c2 f2 e2 z2 | f2 d2 f2 e2 | f2 d2 f2 ed | f3 f g2 g2 | f2 e f2 fdd | %15
w: voir, car ie ne veux|_ a- * voir plus|grand hon- neur,|plus grand hon- neur,|plus grand hon- neur si-|non que de me|voir, si- non que de me|
 c2 f4 g2 | _e4 d2 c2 | d4 G4 | A2 F2 f4- | f2 f2 d3 d | g2 f2 z2 e2 | f4 d4- | d2 _e4 d2 | %23
w: voir en te|bai- sant, en|te bai-|sant, en ton|_ sein ren- dre|l'a- me, en|ton sein|_ ren- dre|
 d4 d4- | d8 |] %25
w: l'a- me|_|
V:2
 d4 B2 A2 | G4 F4 | z BAB ccdd | cB BA B4 | z2 B2 B4 | G3 A B2 A2 | A2 B4 AG |"^b" A3 =B cdcB | %8
w: Si ie tres-|pas- se|en- tre tes bras, en- tre tes|bras ma- da- * me,|il me|suf- * fit, il|me suf- * *|fit, car ie ne veux a-|
 c2 A4 F2- | FGFE F3 G | A4 c2 A2 | d2 =B2 d2 c2 | d2 =B2 z dBB | c3 d BGBc | A2 c2 ddfg | %15
w: voir car ie|_ ne veux a- voir _|_ plus grand|hon- neur, plus grand|non- neur, plus grand hon-|neur si- non que de me|voir, si- non que de me|
 e2 d4 B2 | c4 F2 A2 | A2 B2 BABc | d4 z2 c2 | d4 G2 B2- | B2 d2 c4 | AA d4 B2 | B3 A GABG | %23
w: voir en te|bai- sant, en|te bai- sant, _ _ _|_ en|ton sein ren-|* dre l'a-|me, en ton sein|ren- * dre _ _ _|
 A4 =B4- | B8 |] %25
w: l'a- me.|_|
V:3
 G4 G2 D2 | _E4 B,4 | z B,FG FFBB | AG F2 B,4 | z2 G,2 B,4 | C4 B,2 D2 | D4 _E4 | D3 G FBAG | %8
w: Si ie tres-|pas- se|en- tre tes bras, en- tre tes|bras ma- da- me,|il me|suf- fit, il|me suf-|fit, car ie ne veux a-|
 F4 z2 D2 |"^b" B,EDC B,4 | z2 F2 C2 F2 | D2 z G D2 G2 | D2 z G D2 G2 | F3 D _EEEC | D2 z A BBBG | %15
w: voir, car|ie ne veux a- voir|plus grand hon-|neur, plus grand hon-|neur, plus grand hon-|neur si- non que de me|voir, si- non que de me|
 A2 D4 _E2 | C4 B,2 F2- | F2 G2 _E4 | D4 z2 F2 | B6 G2 | G2 B2 A4 | D2 z D G4- | G2 _E2 E2 G2 | %23
w: voir en te|bai- sant, en|_ te bai-|sant, en|ton sein|ren- dre l'a-|me, en ton|_ sein ren- dre|
 ^F4 G4- | G8 |] %25
w: l'a- me.|_|

